X:656
%%etbk:tnset id:399,pos:1,rep:3x,ant:
%%etbk:wsite https://thesession.org/tunes/2170
%%etbk:pldat 2015-12-13T16:13,2015-03-31T18:41
T: Caisleán An Óir
Z: Piano Box Version by Martin Fleischmann
H: Created 2015-03-29 /  Last Modified 2015-12-13
R: hornpipe
M: 4/4
L: 1/8
K: Gdor
|: GF | !1!DGGF !1!G2 (3A=Bc | !3!dcde !3!f2ga | !4!gfd!1!c !2!A!5!dcA | !1!G2!4!GE !3!FEDC |
DGGF G2 (3A=Bc | dcde f2ga | gfdc AdcA | G2GF G2 :|
|: (3A=Bc | dgga _b2 ag | gfde f2ga | gfdc AdcA | DGGE FEDC |
DGGF G2 (3A=Bc | dcde f2ga | gfdc AdcA | G2GF G2 :|


